icons/ThumbsUp.svg

<svg width="24" height="24" viewBox="0 0 24 24" fill="none" xmlns="http://www.w3.org/2000/svg">
<path fill-rule="evenodd" clip-rule="evenodd" d="M8.75,19.25h8.5042c0.6251,0 1.1541,-0.4618 1.2386,-1.0811l0.9545,-7c0.1023,-0.7505 -0.4811,-1.4189 -1.2385,-1.4189h-4.2088c-0.4142,0 -0.75,-0.33579 -0.75,-0.75v-2.93427c0,-0.97837 -0.7738,-1.77602 -1.7428,-1.81429l-2.7572,6.89296zM7.49223,10.25l2.65017,-6.62533c0.2113,-0.52827 0.7229,-0.87467 1.2919,-0.87467c1.8312,0 3.3157,1.4845 3.3157,3.31573v2.18427h3.4588c1.6664,0 2.9499,1.47038 2.7247,3.1216l-0.9545,7c-0.1858,1.3625 -1.3496,2.3784 -2.7248,2.3784h-8.5042h-0.75h-2c-1.51878,0 -2.75,-1.2312 -2.75,-2.75v-5c0,-1.5188 1.23122,-2.75 2.75,-2.75zM7.25,11.75h-1.25c-0.69036,0 -1.25,0.5596 -1.25,1.25v5c0,0.6904 0.55964,1.25 1.25,1.25h1.25z" fill="#002B51"/>
</svg>

<svg width="24" height="24" viewBox="0 0 24 24" fill="none" xmlns="http://www.w3.org/2000/svg">
<path fill-rule="evenodd" clip-rule="evenodd" d="M8.75 11.1444L11.5072 4.25144C12.4762 4.28971 13.25 5.08736 13.25 6.06573V9C13.25 9.41421 13.5858 9.75 14 9.75H18.2088C18.9662 9.75 19.5496 10.4184 19.4473 11.1689L18.4928 18.1689C18.4083 18.7882 17.8793 19.25 17.2542 19.25H8.75V11.1444ZM7.49223 10.25L10.1424 3.62467C10.3537 3.0964 10.8653 2.75 11.4343 2.75C13.2655 2.75 14.75 4.2345 14.75 6.06573V8.25H18.2088C19.8752 8.25 21.1587 9.72038 20.9335 11.3716L19.979 18.3716C19.7932 19.7341 18.6294 20.75 17.2542 20.75H8.75H8H6C4.48122 20.75 3.25 19.5188 3.25 18V13C3.25 11.4812 4.48122 10.25 6 10.25H7.49223ZM7.25 11.75H6C5.30964 11.75 4.75 12.3096 4.75 13V18C4.75 18.6904 5.30964 19.25 6 19.25H7.25V11.75Z" fill="#002B51"/>
</svg>
